X: 1
T: Stures Schottis
C: Trad.
R: shottish
S: http://www.nyckelharpa.org/archive/written-music/american-allspel-list/ 2022/9/26
Z: 2022 John Chambers <jc:trillian.mit.edu>
M: C|
L: 1/8
Q: 1/2=70
K: Gm
"D7"D2 |:\
"Gm"G>^F G<A B>A B<c | d>e d<c B2 G2 | "D7"D2 ^FA d>c B<A |1,3 "Gm"G>A B<c "D7"d3 D :|2,4 "Gm"G2 B2 G2 :|
|: "F7"A2 |\
"Bb"B>d d<d B>d d<d | B>d d<d (ed) cB | "F"A>c c<c A>c c<c | A>c c<c "D7"(dc) BA ||
"Gm"G>B B<B G>B B<B | G>B B<B "Cm"(cB) AG | "D7"D2 ^FA d>c B<A | "Gm"G2 B2 G2 :|
